X: 1
T: Keel Row
O: trad Scotland
R: hornpipe
M: 4/4
L: 1/8
K: G
|: "D7"d>c \
| "G"B2 G>B "Am"c2 A>c | "G"B2 G>B "D7"A>F D>A \
| "G"B2 G>B "Am"c2 A>c | "D7"B>G A>F "G"G2 :|
|: "D7"d>c \
| "G"B<d d>g "Am"e2 d>c | "G"B2 G>B "D7"A>F D>A \
| "G"B<d d>g "Am"e2 d>c | "D7"B>G A>F "G"G2 :|
